assets/img/braze_icons/shopping-cart-02.svg

<svg fill="none" height="24" viewBox="0 0 24 24" width="24" xmlns="http://www.w3.org/2000/svg"><path clip-rule="evenodd" d="m2 3.00001h1.14551l2.7633 17.50099c.01599.1015.03556.2258.06143.3351.03051.1289.08435.3062.20302.487.15625.2381.37702.4267.63652.5439.19708.089.38069.1146.51277.1246.112.0085.23777.0085.34055.0084h11.3369c.5523 0 1-.4477 1-1s-.4477-1-1-1h-11.14551l-.31579-2h9.825c.4456 0 .8339 0 1.1576-.0242.3444-.0259.6862-.0829 1.0254-.2332.5119-.227.9501-.5927 1.265-1.0558.2086-.3067.3258-.6328.4128-.9671.0818-.3141.1512-.696.2309-1.1344l1.3617-7.48924c.0253-.13866.0545-.29892.0677-.44021.0148-.15923.0221-.40057-.0725-.66361-.1197-.33287-.3533-.6127-.6594-.79007-.2418-.14016-.4806-.17612-.6399-.18997-.1414-.0123-.3043-.01224-.4452-.01219h-15.58173l-.39488-2.50096c-.01599-.10153-.03556-.22578-.06143-.33508-.03051-.1289-.08435-.30629-.20302-.48707-.15625-.23804-.37702-.42669-.63652-.54391-.19708-.08902-.3807-.11453-.51277-.12456-.11201-.008514-.23778-.008465-.34057-.00842h-1.33688c-.55228 0-1 .44772-1 1 0 .55229.44772 1 1 1z" fill="#801ed7" fill-rule="evenodd"/></svg>

<svg width="24" height="24" viewBox="0 0 24 24" fill="none" xmlns="http://www.w3.org/2000/svg">
<path fill-rule="evenodd" clip-rule="evenodd" d="M2 3.00001H3.14551L5.90881 20.501C5.9248 20.6025 5.94437 20.7268 5.97024 20.8361C6.00075 20.965 6.05459 21.1423 6.17326 21.3231C6.32951 21.5612 6.55028 21.7498 6.80978 21.867C7.00686 21.956 7.19047 21.9816 7.32255 21.9916C7.43455 22.0001 7.56032 22.0001 7.6631 22L19 22C19.5523 22 20 21.5523 20 21C20 20.4477 19.5523 20 19 20H7.85449L7.5387 18H17.3637C17.8093 18 18.1976 18 18.5213 17.9758C18.8657 17.9499 19.2075 17.8929 19.5467 17.7426C20.0586 17.5156 20.4968 17.1499 20.8117 16.6868C21.0203 16.3801 21.1375 16.054 21.2245 15.7197C21.3063 15.4056 21.3757 15.0237 21.4554 14.5853L22.8171 7.09606C22.8424 6.9574 22.8716 6.79714 22.8848 6.65585C22.8996 6.49662 22.9069 6.25528 22.8123 5.99224C22.6926 5.65937 22.459 5.37954 22.1529 5.20217C21.9111 5.06201 21.6723 5.02605 21.513 5.0122C21.3716 4.9999 21.2087 4.99996 21.0678 5.00001L5.48607 5.00001L5.09119 2.49905C5.0752 2.39752 5.05563 2.27327 5.02976 2.16397C4.99925 2.03507 4.94541 1.85768 4.82674 1.6769C4.67049 1.43886 4.44972 1.25021 4.19022 1.13299C3.99314 1.04397 3.80952 1.01846 3.67745 1.00843C3.56544 0.999916 3.43967 0.999965 3.33688 1.00001L2 1.00001C1.44772 1.00001 1 1.44773 1 2.00001C1 2.5523 1.44772 3.00001 2 3.00001Z" fill="#801ED7"/>
</svg>
